X: 1
T: Texas Barb Wire
C: Kenny Hall
R: reel
Z: 2020 John Chambers <jc:trillian.mit.edu>
S: https://www.facebook.com/groups/Fiddletuneoftheday/
S: https://www.facebook.com/groups/Fiddletuneoftheday/photos/
M: C|
L: 1/8
K: G
GE |\
"G"D2B3 cBG | D2B3 cBG | "C"E2c3 ecG | E2c3 ecG |\
"G"D2B3 cBG | D2B3 cBG | "D"A2AB cBAc | "G"B2G2-G2 :|
|: ge |\
"G"d2g2 g3a | b2 g4 ga- | "D"agag f3g | a2f3 afe |\
"G"deg2 g3a | b2 g4 g2 | "D"a2a2 e2f2 | "G"gfga g2 :|
